wp-content/themes/understrap-child/fonts/icon-web-design.svg

<?xml version="1.0" encoding="UTF-8"?>
<svg width="120px" height="120px" viewBox="0 0 120 120" version="1.1" xmlns="http://www.w3.org/2000/svg" xmlns:xlink="http://www.w3.org/1999/xlink">
    <title>icon-web-design</title>
    <g id="icon-web-design" stroke="none" stroke-width="1" fill="none" fill-rule="evenodd">
        <path d="M111.632901,3.15340388 L111.739155,3.23483557 L111.739155,3.23483557 L111.84394,3.31815078 L114.670017,5.60666282 C117.82057,8.15793088 118.363084,12.7361074 115.940885,15.9476823 L115.778708,16.1551605 L115.606534,16.3601847 L108.417015,24.6174744 C115.105345,26.5344551 120,32.6956236 120,40 L120,88 C120,96.836556 112.836556,104 104,104 L70,104 L70,115 L81.5,115 C82.8807119,115 84,116.119288 84,117.5 C84,118.880712 82.8807119,120 81.5,120 L38.5,120 C37.1192881,120 36,118.880712 36,117.5 C36,116.119288 37.1192881,115 38.5,115 L50,115 L50,104 L16,104 C7.163444,104 0,96.836556 0,88 L0,40 C0,31.163444 7.163444,24 16,24 L86.564,23.9993126 L101.130695,4.63788129 C103.620872,1.32785012 108.32287,0.663226946 111.632901,3.15340388 Z M115,84 L5,84 L5,88 C5,93.9787016 9.76976358,98.8433652 15.7115925,98.9962926 L16,99 L104,99 C109.978702,99 114.843365,94.2302364 114.996293,88.2884075 L115,88 L115,84 Z M60.5,87 C62.9852814,87 65,89.0147186 65,91.5 C65,93.9852814 62.9852814,96 60.5,96 C58.0147186,96 56,93.9852814 56,91.5 C56,89.0147186 58.0147186,87 60.5,87 Z M82.802,28.9993126 L16,29 C10.0212984,29 5.15663482,33.7697636 5.0037074,39.7115925 L5,40 L5,79 L115,79 L115,40 C115,34.122023 110.389597,29.3208633 104.587703,29.0154314 L85.3810563,51.0750154 C82.7884267,54.0527251 78.3457126,54.500792 75.2160473,52.143741 L75.0047329,51.978683 L74.7321355,51.7579379 C71.6622721,49.2720116 71.0568408,44.844976 73.304614,41.6327903 L73.4586968,41.420479 L82.802,28.9993126 Z M77.3004097,57.8194949 C78.1982674,61.4206054 75.9302401,65.1158089 72.191522,66.2922337 L72.2017929,66.3050183 L59.5879484,69.4500029 C59.0520689,69.5836127 58.5093406,69.2575086 58.3757308,68.7216291 C58.3233861,68.511686 58.3405467,68.2904285 58.4246368,68.0910673 L62.8481232,57.6038408 C62.9006431,57.4793262 62.9754285,57.3709981 63.0658936,57.2815347 C63.9342208,55.1766282 65.840639,53.4624412 68.3297385,52.841839 C72.348835,51.8397657 76.3651413,54.0683382 77.3004097,57.8194949 Z M105.238607,7.50489108 L105.126256,7.64379076 L77.4542579,44.4263885 C76.6802573,45.4552173 76.8182782,46.8935483 77.7471784,47.7579806 L77.8787374,47.8722081 L78.1513348,48.0929532 C79.1518829,48.903181 80.5942236,48.8165843 81.491259,47.9191288 L81.6101093,47.7917306 L111.864588,13.0429853 L111.992291,12.8774681 C112.712886,11.859221 112.569157,10.4606099 111.658687,9.61006974 L111.523415,9.49239262 L108.626991,7.14896495 C107.571619,6.3549955 106.091728,6.52317049 105.238607,7.50489108 Z" id="Combined-Shape" fill="#FFFFFF"></path>
    </g>
</svg>

<svg focusable="false" class="icon icon-chat" xmlns="http://www.w3.org/2000/svg" viewBox="0 0 64 64">
	<title>Web Design Icon</title>
    <desc>Icon set Web Design</desc>
	<path d="M111.633 3.153l.106.082.105.083 2.826 2.289a7.5 7.5 0 011.27 10.34l-.161.208-.172.205-7.19 8.257C115.105 26.534 120 32.696 120 40v48c0 8.837-7.163 16-16 16H70v11h11.5a2.5 2.5 0 110 5h-43a2.5 2.5 0 110-5H50v-11H16c-8.837 0-16-7.163-16-16V40c0-8.837 7.163-16 16-16h70.564l14.567-19.362a7.5 7.5 0 0110.502-1.485zM115 84H5v4c0 5.979 4.77 10.843 10.712 10.996L16 99h88c5.979 0 10.843-4.77 10.996-10.712L115 88v-4zm-54.5 3a4.5 4.5 0 110 9 4.5 4.5 0 010-9zm22.302-58H16c-5.979 0-10.843 4.77-10.996 10.712L5 40v39h110V40c0-5.878-4.61-10.68-10.412-10.985L85.38 51.075a7.5 7.5 0 01-10.165 1.069l-.211-.165-.273-.221a7.5 7.5 0 01-1.427-10.125l.154-.213L82.802 29zM77.3 57.82c.898 3.6-1.37 7.296-5.108 8.472l.01.013-12.614 3.145a1 1 0 01-1.163-1.359l4.423-10.487a.997.997 0 01.218-.322c.868-2.105 2.775-3.82 5.264-4.44 4.019-1.002 8.035 1.226 8.97 4.977zM105.24 7.504l-.113.139-27.672 36.782a2.5 2.5 0 00.293 3.332l.132.114.272.221a2.5 2.5 0 003.34-.174l.12-.127 30.254-34.749.127-.166a2.5 2.5 0 00-.333-3.267l-.136-.118-2.896-2.343a2.5 2.5 0 00-3.388.356z" />
</svg>
